X: 115
T: Grand Signor
T: Longways for as many as will.
%R:  reel
B: Daniel Wright "Wright's Compleat Collection of Celebrated Country Dances" 1740 p.58
S: http://library.efdss.org/cgi-bin/dancebooks.cgi
Z: 2014 John Chambers <jc:trillian.mit.edu>
N: Repeats modified to match the "Each strain twice" instruction.
M: C|
L: 1/8
K: G
% - - - - - - - - - - - - - - - - - - - - - - - - -
|:\
g4 d4 | BcBc d2G2 | g4 d4 | B2d^c d4 ::\
g4 d4 | e=fef g2c2 | a4 e4 | fgfg a2d2 |\
b4 f4 | gaga b2e2 |
a4 g4 | f6 d2 |\
efef g2B2 | cdcd e2G2 | ABAB c2d2 | B2Bc dede |\
cdcd BcBc | A2e2 d2c2 | B4 A4 | G8 :|
% - - - - - - - - - - - - - - - - - - - - - - - - -
%%center Each strain twice.
%%begintext align
%% The 1st man & 2d Wo. foot it & turn single .| 2d man &
%% 1st wo do the same :| 1st man change with 2d wo. the
%% 2d man with 1st wo. lead to the wall back again hands
%% quite round :| (Now the men are in the we. Side)
%% hands with your partners draw in each place, turn
%% Partners half round, all 4 turn single, 1st Cu. cross
%% over figure in and cast off :|
%%endtext
% - - - - - - - - - - - - - - - - - - - - - - - - -
%%sep 2 4 300
